X: 810
T: Gelmedin
C: İsmail Gökçe
O: Turkey
F: http://compmusic.upf.edu/node/140
N: nihavent--sarki--sofyan--gelmedin--ismail_gokce
N: makam= nihavent
N: form= sarki
N: usul= sofyan = 4/4
M: 4/4
L: 1/16
K: C _B _e  
Q: 1/4=64
%%MIDI tuningsystem comma53
z2BA G2^F2 G2F2 E2D2  | zD2E ^F2G2 B3A G4  | \
w:   |   | 
z2BA G2^F2 G2F2 E2D2  | 
w:   | 
G3A B2c2 dcBc d4  | z2c4d2 e3d e2g2  | \
w:   |   | 
f2e2 d2c2 B2c2 A4  | 
w:   | 
GBAc Bdce d3e dcBA  | Ggfe dcBA G2D2 G4  | 
w:   |   | 
A3B G4 ^F3G A4  | A2B2 A2B2 G4 z4  | \
w:  Gel me din  göz le rim   |  yol lar da  kal dı    | 
G3G e4 d2e2 c4  | f2g2 e2f2 d8  | 
w:  Yaz dı ğım  şi ir ler   |  el ler de  kal dı    | 
z2ga b2a2 g2^f6  | ^f2g2 a2ba b8  | c'3c'3ba c'c'7  | \
w:  Ki mi  şar kı  ol du   |  dil ler de  kal *  dı    |  Ar tık  sa na  şi ir   | 
b3a g2^f2 g8  | 
w:  yaz ma ya ca ğım    | 
z2^fg _7/8a3g g2f6  | d2e2 c2d2 B8  | \
w:  Ki mi  şar kı  ol du   |  dil ler de  kal dı    | 
B3B3AG AB7  | B3A G2^F2 G8  | 
w:  Ar tık  sa na  şi ir   |  yaz ma ya ca ğım    | 
z2BA G2^F2 G2F2 E2D2  | zD2E ^F2G2 B3A G4  | \
w:   |   | 
z2BA G2^F2 G2F2 E2D2  | 
w:   | 
G3A B2c2 dcBc d4  | z2c4d2 e3d e2g2  | \
w:   |   | 
f2e2 d2c2 B2c2 A4  | 
w:   | 
GBAc Bdce d3e dcBA  | Ggfe dcBA G2D2 G4  | 
w:   |   | 
z2gg g4 g3g g4  | z2^fg a3g a8  | ^fg3 a2g2 ac'7  | \
w:  So ra rım  ken di me   |  so ra rım  ni çin    |  Ne den  yan dı ğı mı   | 
c'3c' bab2 g8  | 
w:  hep  i çin  *  i çin    | 
^f3g _7/8a2g2 g2f6  | ^fg3 a3g a8  | \
w:  Töv be  e de ce ğim   |  u nut mak  i çin    | 
c'3c'3ba c'c'7  | b3a g2^f2 g8  | 
w:  Ar tık  sa na  şi ir   |  yaz ma ya ca ğım    | 
^f3g _7/8a2g2 g2f6  | de3 c3d B8  | B3B3AG BB7  | \
w:  Töv be  e de ce ğim   |  u nut mak  i çin    |  Ar tık  sa na  şi ir   | 
B3A G2^F2 G8  | 
w:  yaz ma ya ca ğım    | 
z2BA G2^F2 G2F2 E2D2  | zD2E ^F2G2 B3A G4  | \
w:   |   | 
z2BA G2^F2 G2F2 E2D2  | 
w:   | 
G3A B2c2 dcBc d4  | z2c4d2 e3d e2g2  | \
w:   |   | 
f2e2 d2c2 B2c2 A4  | 
w:   | 
GBAc Bdce d3e dcBA  | Ggfe dcBA G2D2 G4  | 
w:   |   | 
z2AB A4 ^F2G2 A4  | z2AB A2B2 G8  | e2e4cB A2e2 e4  | \
w:  Sa çı ma  kar  yağ dı   |  yü re ğim  yan dı    |  Sab rın  so *  nu  gel di   | 
z2fe ge3 d8  | 
w:  ca na  da yan dı    | 
z2^fg3a2 g2f2 f4  | z2^fg a2ba b8  | \
w:  Kâ ğıt  bık tı  ben den   |  ka lem  u san *  dı    | 
c'2c'c' bac'3c'7  | 
w:  Ar tık  *  sa na  şi ir   | 
b3a g2^f2 g8  | z2^fg _7/8a2g2 g2f6  | \
w:  yaz ma ya ca ğım    |  Kâ ğıt  bık tı  ben den   | 
z2de c2d2 B8  | B3B3AG B2B6  | 
w:  ka lem  u san dı    |  Ar tık  sa na  şi ir   | 
B3A G2^F2 G8  | z2gg g4 g3g g4  | z2^fg a3g a8  | \
w:  yaz ma ya ca ğım    |  So ra rım  ken di me   |  so ra rım  ni çin    | 
^fg3 a2g2 ac'7  | 
w:  Ne den  yan dı ğı mı   | 
c'3c' bab2 g8  | ^f3g _7/8a2g2 g2f6  | \
w:  hep  i çin  *  i çin    |  Töv be  e de ce ğim   | 
^fg3 a3g a8  | c'3c'3ba c'c'7  | 
w:  u nut mak  i çin    |  Ar tık  sa na  şi ir   | 
b3a g2^f2 g8  | ^f3g _7/8a2g2 g2f6  | \
w:  yaz ma ya ca ğım    |  Töv be  e de ce ğim   | 
de3 c3d B8  | B3B3AG BB7  | 
w:  u nut mak  i çin    |  Ar tık  sa na  şi ir   | 
B3A G2^F2 G8  | |


